X:1
T:Allegretto
T:Allegretto
T:M. Carcassi
C:M. Carcassi
%%score ( 1 2 )
L:1/8
Q:1/4=116
M:2/4
K:C
V:1 treble-8 nm="Violão acústico" snm="Viol."
V:2 treble-8 
V:1
"^Allegretto" e | gf de | C/G/c/G/ ec | G,/G/B/G/ fB | C/G/c/G/ ee | gf de | C/-G/c/G/ ec | %7
 G,/-G/B/G/ fB | c2 z :: G | BG BG | cG cG | dG dG | eG ee | ^f2 f2 | [Bg]G Be | dc AB | G2 z e | %18
 gf de | C/-G/c/G/ ec | G,/-G/B/G/ fB | C/-G/c/G/ ee | gf de | C/-G/c/G/ ec | G,/-G/B/G/ fB | %25
 c2 z :| %26
V:2
 z | z4 | C2- C2 | G,2- G,2 | C2- C2 | z4 | C2 C2 | G,2 G,2 | C2 z :: z | F2 F2 | E2 E2 | B,2 B,2 | %13
 C2 C z | cD cD | z G B z | D4 | G,2 z2 | z4 | C2 C2 | G,2 G,2 | C2 C2 | z4 | C2 C2 | G,2 G,2 | %25
 C2 z :| %26

